X:3
T:Belfast Almanac, The
R:Jig
S:The Athole Collection
S:Steve Wyrick  2004-2-4
M:6/8
L:1/8
K:F %Transposed from G
%Athole has it as a 3-part jig. This arrangement is for The Academy
%and omits the 3rd part
C|F2F EDC|D2E F2G|A2F B2G|A2F B2G|!
A>Bc D2D|GAF EDC|D>EF GEC| F3 F2||!
B|ABc cde|f2f f3|A2A ABc|d2d d3|!
cBA Bcd|cAc C2 C|D>EF GEC|F3 F2||!
